sequoia/src/components/Header/assets/exit.svg

<svg width="25" height="24" viewBox="0 0 25 24" fill="none" xmlns="http://www.w3.org/2000/svg">
<path d="M15.8691 12.0218H3.82812" stroke="white" stroke-width="2" stroke-linecap="round" stroke-linejoin="round"/>
<path d="M12.9453 9.10577L15.8733 12.0218L12.9453 14.9378" stroke="white" stroke-width="2" stroke-linecap="round" stroke-linejoin="round"/>
<path d="M8.5625 7.38897V6.45597C8.5625 4.42097 10.2115 2.77197 12.2475 2.77197H17.1315C19.1615 2.77197 20.8065 4.41697 20.8065 6.44697V17.587C20.8065 19.622 19.1565 21.272 17.1215 21.272H12.2365C10.2075 21.272 8.5625 19.626 8.5625 17.597V16.655" stroke="white" stroke-width="2" stroke-linecap="round" stroke-linejoin="round"/>
</svg>

<svg width="25" height="24" fill="none" xmlns="http://www.w3.org/2000/svg"><path d="M15.87 12.02H3.83M12.95 9.1l2.92 2.92-2.92 2.92" stroke="#fff" stroke-width="2" stroke-linecap="round" stroke-linejoin="round"/><path d="M8.56 7.39v-.93a3.68 3.68 0 0 1 3.69-3.69h4.88a3.67 3.67 0 0 1 3.68 3.68v11.14a3.69 3.69 0 0 1-3.69 3.68h-4.88a3.67 3.67 0 0 1-3.68-3.67v-.95" stroke="#fff" stroke-width="2" stroke-linecap="round" stroke-linejoin="round"/></svg>
